Sources/FrostedUI/Resources/Icons.xcassets/document16.imageset/document-16.svg

<svg width="16" height="16" viewBox="0 0 16 16" fill="none" xmlns="http://www.w3.org/2000/svg" data-fui-icon="true">
  <path
    d="M8.99023 0.000976562C8.99349 0.000934914 8.99674 7.31054e-08 9 0C9.02909 0 9.05771 0.00263533 9.08594 0.00585938C9.76069 0.0322154 10.4017 0.312537 10.875 0.797852L13.749 3.74512C14.2302 4.23857 14.4999 4.90061 14.5 5.58984V13.3574C14.5 14.8169 13.3169 16 11.8574 16H4.14258C2.68314 16 1.50003 14.8169 1.5 13.3574V2.64258C1.50003 1.18314 2.68314 2.89907e-05 4.14258 0H8.98242C8.98489 0 8.98777 0.000969682 8.99023 0.000976562ZM4.14258 1.5C3.51156 1.50003 3.00003 2.01156 3 2.64258V13.3574C3.00003 13.9884 3.51156 14.5 4.14258 14.5H11.8574C12.4884 14.5 13 13.9884 13 13.3574V6.5H10.8926C9.43314 6.49996 8.25003 5.31686 8.25 3.85742V1.5H4.14258ZM9.75 3.85742C9.75003 4.48843 10.2616 4.99996 10.8926 5H12.834C12.7892 4.92594 12.7371 4.85592 12.6758 4.79297L9.80078 1.84473C9.78448 1.82802 9.76719 1.81246 9.75 1.79688V3.85742Z"
    fill="currentColor"
  />
</svg>

<svg xmlns="http://www.w3.org/2000/svg" width="16" height="16" fill="none" data-fui-icon="true" viewBox="0 0 16 16"><path fill="currentColor" d="M8.99.001 9 0q.044 0 .086.006a2.64 2.64 0 0 1 1.789.792l2.874 2.947c.481.494.75 1.156.751 1.845v7.767A2.643 2.643 0 0 1 11.857 16H4.143A2.643 2.643 0 0 1 1.5 13.357V2.643A2.643 2.643 0 0 1 4.143 0h4.84zM4.143 1.5C3.512 1.5 3 2.012 3 2.643v10.714c0 .631.512 1.143 1.143 1.143h7.714c.631 0 1.143-.512 1.143-1.143V6.5h-2.107A2.643 2.643 0 0 1 8.25 3.857V1.5zM9.75 3.857c0 .631.512 1.143 1.143 1.143h1.941a1.1 1.1 0 0 0-.158-.207L9.8 1.845l-.051-.048z"/></svg>
